Icons/Colored/ArrowLeftThickStroke.svg

<svg xmlns="http://www.w3.org/2000/svg" xml:space="preserve" fill-rule="evenodd" stroke-linejoin="round" stroke-miterlimit="2" clip-rule="evenodd" viewBox="0 0 64 64">
  <g id="red">
    <path fill="#ff2721" fill-rule="nonzero" d="M37.18 13.727 20.82 29.375a3.518 3.518 0 0 0-1.058 2.598v.047a3.523 3.523 0 0 0 1.066 2.613l16.352 15.64a4.664 4.664 0 0 0 6 0 3.836 3.836 0 0 0 0-5.277C28.656 32.348 28.961 31.973 28.961 31.973s-.106-.125 14.211-12.977a3.836 3.836 0 0 0 0-5.277 4.667 4.667 0 0 0-5.992.008Z"/>
  </g>
</svg>

<?xml version="1.0" encoding="UTF-8" standalone="no"?>
<!DOCTYPE svg PUBLIC "-//W3C//DTD SVG 1.1//EN" "http://www.w3.org/Graphics/SVG/1.1/DTD/svg11.dtd">
<svg width="100%" height="100%" viewBox="0 0 64 64" version="1.1" xmlns="http://www.w3.org/2000/svg" xmlns:xlink="http://www.w3.org/1999/xlink" xml:space="preserve" xmlns:serif="http://www.serif.com/" style="fill-rule:evenodd;clip-rule:evenodd;stroke-linejoin:round;stroke-miterlimit:2;">
    <g id="surface1">
        <path d="M37.18,13.727L20.82,29.375C20.125,30.055 19.738,30.996 19.762,31.973L19.762,32.02C19.738,33.004 20.125,33.949 20.828,34.633L37.18,50.273C38.902,51.73 41.457,51.73 43.18,50.273C44.582,48.805 44.582,46.465 43.18,44.996C28.656,32.348 28.961,31.973 28.961,31.973C28.961,31.973 28.855,31.848 43.172,18.996C44.574,17.527 44.574,15.188 43.172,13.719C41.445,12.27 38.902,12.273 37.18,13.727Z" style="fill:#ff2721;fill-rule:nonzero;"/>
    </g>
</svg>
